!!!COM: Robert Schumann
!!!CNT: Deutsch
!!!TXO: Deutsch
!!!OTL: Ich wandre nicht
!!!LYR: Christern
!!!OPR: Ausgewa2hlte Lieder
!!!OPS: Op. 51
!!!ONM: No. 3
!!!ENC: Ben Fuhrman
!!!YOR: Schumann Lieder - Max Friedlaender, ed.,
!!!YOR: New York: C. F. Peters, Vol. 1
!!!ODT: 1840/
!!NB: Vocal melody and text only encoded.
!!NB: First instance of melodic material only encoded.
**kern	**silbe
*clefG2	*
*k[f#]	*
*M3/4	*
!!created: 5/25/06 9:38
!!proofed and posted: 5/25/06 9:38
!!edit time: 33 minutes
=3	=3
8r	.
{8d	{Wa-
8e	-rum
8d	soll
8e	ich
8f#	denn
=4	=4
4g	wan-
4d}	-dern}
4r	.
=5	=5
8r	.
{8g	mit
8a	an-
8g	-dern
8f#	glei-
8e	-chen
=6	=6
4d}	Schritt,}
4r	.
4r	.
=7	=7
8r	.
{8e	{ich
8d#	pass'
8e	nicht
8f#	zu
8g	den
=8	=8
4cc	an-
4f#}	-dern,}
8r	.
{8f#	{und
=9	=9
4.b	Lieb-
8a	-chen
8f#	geht
8g	nicht
=10	=10
2e}	mit.
4r	.
=11	=11
4r	.
4r	.
8r	.
{8g	Man
=12	=12
4.g	singt
8g	in
8a	tau-
8b	-send
=13	=13
4cc	Wei-
4.g	-sen
8g	von
=14	=14
4.dd	Ber-
8b	-gen,
8g	Fel-
8fn	-sen-
=15	=15
2e}	-ho2h'n:}
4r	.
=16	=16
8r	.
{8a	al-
8g#	-lein
8a	wa-
8cc	-rum
8a	noch
=17	=17
4g	rei-
4f#	-sen,
8r	.
8g	die
=18	=18
4.a	Hei-
8e	-mat
8f#	ist
8d	so
=19	=19
[2.dd	scho2n,
=20	=20
2dd]	|
(8ff#	die
8ee)	|
=21	=21
4.dd	Hei-
8d	-mat
8b	ist
8a	so
=22	=22
2g}	scho2n!}
4r	.
!! rest to measure 24
=24	=24
8r	.
{8d	{Ich
8e	geh'
8d	nicht
8e	ins
8f#	Ge-
=25	=25
4g	-wim-
4d}	-mel}
4r	.
=26	=26
8r	.
{8g	{der
8a	gro-
8g	-ssen,
8f#	wei-
8e	-ten
=27	=27
4d}	Welt,}
4r	.
4r	.
=28	=28
8r	.
{8e	{den
8d#	klar-
8e	-sten,
8f#	blau'-
8g	-sten
=29	=29
4cc	Him-
4f#}	-mel}
8r	.
{8f#	{zeigt
=30	=30
4.b	Lieb-
8a	-chens
8f#	Au-
8g	-gen-
=31	=31
2e}	-zelt.}
4r	.
=32	=32
4r	.
4r	.
8r	.
{8g	{Und
=33	=33
4.g	mehr
8g	als
8a	Fru2h-
8b	-lings-
=34	=34
4cc	-won-
4.g	-ne
8g	ver-
=35	=35
4.d	spricht
8b	ihr
8g	La2-
8fn	-cheln
=36	=36
2e}	mir,}
4r	.
=37	=37
8r	.
{8a	{o
8g#	zar-
8a	-te
8cc	mei-
8a	-ne
=38	=38
4g	Son-
4f#}	-ne,}
8r	.
{8g	{ich
=39	=39
4.a	wand-
8e	-re
8f#	nicht
8d	von
=40	=40
[2.dd	hier,
=41	=41
2dd]	|
(8ff#	ich
8ee)	|
=42	=42
4.dd	wand-
8d	-re
8b	nicht
8a	von
=43	=43
2g}	hier.}
4r	.
==	==
*-	*-
